X: 2
T: The Old Stack of Wheat
R: reel
M: 4/4
L: 1/8
K: Gmaj
|: AGED EG3 | B ~A2  GAB de | fged BGAB | ddB AG E3 |
| GGEDE GAB | G ~A2 GAB de | fged BGAB | GAG EF G3 :|
|: edBd edgd | edBd e3 z | fg edB GAB |[1 ddBAG E2 d:|2 GAGEFG2 |]


% Transcription which is more accurate to a recording

